X:1
T:Countess of Seafield's [2], The
T:Countess of Seafield's [2], The
T:Alexander Walker
C:Alexander Walker
L:1/8
M:4/4
K:A
V:1 treble 
V:1
 C | A,>CE>C E/E/E E>c | d>Bc>A B<B,B,>C | A,>CE>C E/E/E Ec/d/ | c>AB>G (A2 A) :| f | %6
 e>Ac>A e<AA>c | d>Bc>A B<F Fc/d/ | e>Ac>A c>de<a | g<be>g a2 A>g | a>(Ag>)(A f>)(Ae>)(A | %11
 B<)B,A,>C | A,>CE>C E/E/E Ec/d/ | c<A{c}B>G A2 A || %14

